X:68
T:Reel 68
M:4/4
K:Cmaj
L:1/8
G>F (3EDE E>C (3cBc |G>E (3EDE G>F (3FED |F>B (3BB,B F>B, (3DCB, |DFBF BcdB (3FAD |c>B (3BAB G>C (3CB,C |D>B, (3B,B,B, D>C (3DCB, |CFED BcBc| (3cde dB c2|GF|EDEG C2EC|B,DB,D FDB,D| (3EFE G2 BEGE|FDB,D FAGF| (3EDE GE FEDE| (3B,CB, DB, FDB,D| (3EDC  (3FED ECDB,|G,A,B,C B,DFAGF|
